public/static/img/trade/ipo_detail_failure.svg

<svg width="60" height="60" viewBox="0 0 60 60" fill="none" xmlns="http://www.w3.org/2000/svg">
<rect width="60" height="60" rx="16" fill="#EFF3F8"/>
<g clip-path="url(#clip0_382_8467)">
<path d="M44.0977 15.8827C36.2802 8.06514 23.4727 8.06514 15.6551 15.8827C8.00392 23.8666 8.17025 36.5077 16.1541 44.3253C23.9717 51.8101 36.2802 51.8101 44.0977 44.3253C51.9153 36.5077 51.9153 23.8666 44.0977 15.8827ZM38.6088 38.8363C37.9435 39.5017 36.9455 39.5017 36.2802 38.8363L29.9596 32.5158L23.639 38.8363C22.9737 39.5017 21.8094 39.5017 21.3104 38.8363C20.8114 38.171 20.6451 37.173 21.3104 36.5077L27.631 30.1871L21.3104 23.8666C20.6451 23.2012 20.6451 22.2033 21.3104 21.5379C21.9757 20.8726 22.9737 20.8726 23.639 21.5379L29.9596 27.8585L36.2802 21.5379C36.9455 20.8726 38.1098 20.8726 38.6088 21.5379C39.1078 22.2033 39.2741 23.2012 38.6088 23.8666L32.2882 30.1871L38.6088 36.5077C39.2741 37.173 39.2741 38.171 38.6088 38.8363Z" fill="#8F92A1"/>
</g>
<defs>
<clipPath id="clip0_382_8467">
<rect width="40" height="40" fill="white" transform="translate(10 10)"/>
</clipPath>
</defs>
</svg>

<svg width="60" height="60" fill="none" xmlns="http://www.w3.org/2000/svg"><rect width="60" height="60" rx="16" fill="#EFF3F8"/><g clip-path="url(#a)"><path d="M44.098 15.883c-7.818-7.818-20.625-7.818-28.443 0-7.651 7.984-7.485 20.625.5 28.442 7.817 7.485 20.125 7.485 27.943 0 7.817-7.817 7.817-20.458 0-28.442Zm-5.49 22.953c-.664.666-1.662.666-2.328 0l-6.32-6.32-6.321 6.32c-.665.666-1.83.666-2.329 0-.499-.665-.665-1.663 0-2.328l6.321-6.32-6.32-6.321c-.666-.666-.666-1.664 0-2.33.665-.664 1.663-.664 2.328 0l6.32 6.322 6.321-6.321c.666-.665 1.83-.665 2.329 0 .499.665.665 1.663 0 2.329l-6.32 6.32 6.32 6.32c.665.666.665 1.664 0 2.33Z" fill="#8F92A1"/></g><defs><clipPath id="a"><path fill="#fff" transform="translate(10 10)" d="M0 0h40v40H0z"/></clipPath></defs></svg>
